!!!id: bhatk3188a
!!!vol: 3
!!!page: 189
!!!antara: Jabse gaya ho
!!!raag: bihag
!!!taal: teental
!!!tempo: madhyalaya
**kern
!!data: // P  P  P  >S'N/  N  -  N  -/  S'  -  S'  -/  >NS'  R'  S'  -/
==1
4g
4g
4g
ccq
4b
=
2b
2b
=
2cc
2cc
=
bq
4cc
4dd
2cc
!!data: // >NS'  -  S'  S'/  N  N  P  P/  P  P  >S'N  -/  >NS'  N  P  -/
==2
bq
2cc
4cc
4cc
=
4b
4b
4g
4g
=
4g
4g
ccq
2b
=
bq
4cc
4b
2g
!!data: // >PG  M  P  P/  >PS'  N  %P  -/  >DP  -  >PG  M/  G  %S  -  N,/  
==3
gq
4e
4f
4g
4g
=
gq
4cc
4b
2gS
=
aq
2g
gq
4e
4f
=
4e
2cS
4B
==
*-
